assets/icon/gureksingh.svg

<svg width="52" height="53" viewBox="0 0 52 53" fill="none" xmlns="http://www.w3.org/2000/svg">
<g filter="url(#filter0_ddd_604_1946)">
<rect x="2" width="48" height="48" rx="24" fill="white" shape-rendering="crispEdges"/>
<path d="M26.0842 25.6303C26.1372 24.9723 27.139 24.8228 27.2387 25.474C27.3279 26.0573 27.2228 26.5931 26.9602 27.1182C26.7093 27.62 26.0785 27.3859 26.0308 26.929C25.9837 26.4778 26.0171 26.2086 26.0511 25.9345C26.0633 25.8366 26.0755 25.738 26.0842 25.6303Z" fill="#424257"/>
<path d="M33.7104 25.3386C33.85 25.1556 34.0517 25.0307 34.2933 25.1013C35.0482 25.3219 34.8257 26.394 34.5607 26.9159C34.4166 27.1993 33.951 27.2711 33.7404 27.0216C33.3976 26.6147 33.2332 25.8021 33.6692 25.4013C33.681 25.3806 33.6943 25.3597 33.7104 25.3386Z" fill="#424257"/>
<path d="M26.9493 22.751L27.0686 22.7301C27.4374 22.6663 27.8961 22.605 28.1571 22.9017C28.2954 23.059 28.3431 23.3514 28.1571 23.502C27.9134 23.6992 27.6506 23.6927 27.3704 23.6858C27.2743 23.6834 27.1761 23.6809 27.0759 23.6867C26.7528 23.7052 26.4422 23.7587 26.1309 23.8478C25.448 24.043 24.8915 24.3994 24.3083 24.7909C24.2317 24.8422 24.1536 24.7443 24.1902 24.6727C24.5268 24.0129 25.1793 23.471 25.8329 23.1407C26.1817 22.9644 26.5634 22.8181 26.9493 22.751Z" fill="#424257"/>
<path d="M30.1255 34.4473C29.6985 34.273 29.3176 33.9823 29.039 33.6112C28.9422 33.4819 28.9171 33.3457 28.9374 33.221C28.9603 33.0808 29.0432 32.9538 29.1562 32.8685C29.2696 32.7832 29.4115 32.7409 29.5486 32.7624C29.6678 32.781 29.7864 32.8464 29.8803 32.9817L29.8999 33.0087C30.0655 33.233 30.2813 33.4167 30.5271 33.5353C30.7641 33.6495 31.0291 33.7029 31.3034 33.6718C31.8257 33.6129 32.1857 33.3303 32.5684 32.9465C32.6158 32.8981 32.6633 32.8481 32.711 32.7973C32.7411 32.7512 32.7829 32.7217 32.8293 32.7062C32.8808 32.6888 32.9391 32.6899 32.9924 32.7086C33.0441 32.7266 33.09 32.7607 33.1208 32.8059C33.1502 32.849 33.1669 32.9022 33.1614 32.9635C33.1264 33.3612 32.9186 33.716 32.6233 33.9947C32.2954 34.3043 31.8608 34.5185 31.4516 34.5935C31.0008 34.6763 30.5414 34.6171 30.1255 34.4473Z" fill="#424257"/>
<path d="M21.7759 15.5765C21.8714 15.518 21.9696 15.6316 21.9223 15.7232C21.749 16.0584 21.4864 16.3541 21.2302 16.6426C21.1475 16.7358 21.0655 16.8282 20.9873 16.921C20.6557 17.3144 20.3266 17.71 19.9983 18.1062C19.3297 18.9128 18.6771 19.7342 18.0503 20.574L17.8849 20.7961C17.3338 21.5376 16.7894 22.2909 16.3077 23.0788C16.0557 23.491 15.8336 23.9172 15.6319 24.3562C15.5505 24.5335 15.4876 24.7264 15.4246 24.9197C15.3392 25.182 15.2535 25.4451 15.1207 25.6711C15.1061 25.6959 15.0611 25.6939 15.0556 25.6625C14.9848 25.2653 15.1449 24.7917 15.2747 24.4076C15.283 24.383 15.2912 24.3588 15.2992 24.335C15.4572 23.8643 15.6821 23.416 15.9228 22.983C16.425 22.0797 17.0266 21.2331 17.6311 20.3966C18.2449 19.5473 18.8822 18.7153 19.5509 17.9085C19.8649 17.5295 20.1861 17.1581 20.5168 16.794L20.6412 16.6579C20.7014 16.5925 20.7616 16.5253 20.8224 16.4575C21.1116 16.1349 21.413 15.7986 21.7759 15.5765Z" fill="#424257"/>
<path d="M20.1705 14.2633C20.3275 14.1467 20.4615 14.3849 20.3614 14.5113C19.9099 15.0806 19.4114 15.6064 18.9126 16.1325C18.7504 16.3036 18.5882 16.4746 18.4276 16.6473C17.7988 17.323 17.1978 18.024 16.6307 18.7526C15.4744 20.2383 14.5488 21.8686 13.7648 23.5773C13.7501 23.6095 13.7035 23.5855 13.7105 23.5543C14.1257 21.7062 15.0965 20.0276 16.2019 18.511L16.2439 18.4535C17.362 16.9283 18.6471 15.3952 20.1705 14.2633Z" fill="#424257"/>
<path fill-rule="evenodd" clip-rule="evenodd" d="M23.2914 7.59732C24.697 7.26813 26.171 7.33637 27.5632 7.69816C30.3227 8.41532 32.5931 10.2803 34.4758 12.3596C36.3121 14.3878 37.8263 16.7128 38.9324 19.2174L38.9883 19.3448C39.7706 21.1303 40.4505 22.986 40.4796 24.9519C40.5047 26.6439 40.3343 28.4066 39.7889 30.016C39.3033 31.4496 38.4097 32.8942 36.8725 33.2379C36.6729 33.7463 36.4304 34.2393 36.1495 34.7102C36.2412 35.2615 36.3084 35.9867 36.1699 36.4943C35.9383 37.3431 35.5196 38.1481 34.9901 38.8547C34.5034 39.5035 33.89 40.0429 33.1302 40.3411C32.1387 40.7305 30.9563 40.6211 29.9216 40.5206C28.6295 40.3947 27.3595 40.1072 26.1308 39.6911C25.5161 39.4838 24.9129 39.2447 24.3185 38.9857C24.2317 38.9481 24.1442 38.9105 24.0561 38.8727C23.5514 38.6561 23.032 38.4331 22.5658 38.153C22.1669 37.9132 21.8177 37.5568 21.4864 37.2188C21.4268 37.1579 21.3678 37.0977 21.3092 37.0388C20.8698 36.5977 20.4374 36.1429 20.0333 35.6661C20.0087 35.6794 19.9837 35.6908 19.959 35.7002C19.5148 35.8675 19.0558 35.4335 18.737 35.1322C18.7122 35.1088 18.6883 35.0862 18.6653 35.0647C18.4663 34.8788 18.2834 34.6788 18.1138 34.4674C17.9487 34.491 17.7825 34.503 17.618 34.4833C17.3631 34.453 17.1107 34.4082 16.8624 34.3428C14.8032 33.8009 13.279 32.0872 12.4567 30.1787C11.3526 27.6164 11.3783 24.6628 11.8373 21.9532C12.6759 17.0016 15.3901 12.3774 19.4886 9.4498C20.6365 8.6299 21.9093 7.92099 23.2914 7.59732ZM18.7792 33.7464C18.7039 33.5401 18.6465 33.3218 18.6101 33.0848C18.4188 31.8374 18.5966 30.5267 18.7665 29.2752C18.7802 29.174 18.7939 29.0731 18.8073 28.9728C18.8124 28.9307 18.8784 28.9084 18.8924 28.9518L18.8886 28.8812C18.8841 28.7806 19.0306 28.7673 19.0579 28.8583C19.3916 29.9624 19.9365 30.9675 20.7199 31.8165C21.6964 32.8745 22.9186 33.6394 24.1345 34.4003C24.2618 34.48 24.3891 34.5597 24.516 34.6396C24.5609 34.5971 24.6154 34.5671 24.6732 34.5557C24.8668 33.6847 25.5068 32.8751 26.1397 32.3241C27.2767 31.3351 28.8338 30.6922 30.3974 30.57C30.2587 30.489 30.1156 30.3945 29.9684 30.2855C29.5977 29.9862 30.0466 29.3274 30.4462 29.5836C30.4664 29.5991 30.4877 29.6155 30.5098 29.6326C30.9586 29.9798 31.7801 30.6151 32.3589 30.0077C32.8748 29.2845 32.144 28.6045 31.6644 28.3129C31.5388 28.2226 31.6385 27.9238 31.907 27.97C33.482 28.2407 33.5129 30.0892 32.4986 30.7437C32.7572 30.8114 33.0103 30.8973 33.2557 31.0024C34.2256 31.4183 35.0426 32.1462 35.575 33.0595C35.6273 33.1492 35.6769 33.2407 35.7238 33.3337C35.8013 33.1665 35.8746 32.9974 35.9431 32.8265C35.9285 32.7748 35.9199 32.7223 35.9199 32.6712C35.9199 32.5506 35.9773 32.4815 36.0403 32.4055C36.0904 32.3452 36.1441 32.2805 36.1755 32.1822C36.2462 31.9601 36.3091 31.7352 36.3616 31.5079C36.4804 30.9932 36.5466 30.4709 36.5867 29.9446C36.6014 29.7503 36.6057 29.5507 36.6101 29.3495C36.6153 29.1078 36.6205 28.8638 36.6439 28.6245C36.6283 28.2731 36.6066 27.922 36.5749 27.5716C36.4726 26.4427 36.266 25.3165 35.8676 24.2524L35.8632 24.2407C35.8595 24.2488 35.8553 24.2545 35.8513 24.2596L35.8462 24.266C35.8454 24.267 35.8446 24.2681 35.8438 24.2691C35.843 24.2702 35.8423 24.2712 35.8415 24.2723C35.8301 24.288 35.8159 24.3075 35.7634 24.324C35.7469 24.3201 35.7302 24.3159 35.7133 24.3114C35.4976 24.2549 35.3271 24.1771 35.1618 24.0963L34.9828 24.008C34.7751 23.9061 34.5656 23.8079 34.3435 23.7355C33.8695 23.5808 33.382 23.4719 32.887 23.4137C32.7797 23.4011 32.6764 23.3649 32.5948 23.3028C32.5175 23.2439 32.4584 23.1623 32.4314 23.0538C32.3965 22.9134 32.4065 22.8072 32.4818 22.6805C32.5384 22.5854 32.6194 22.5195 32.7124 22.4817C32.8072 22.4431 32.9152 22.434 33.0224 22.4555L33.1138 22.4742C33.9773 22.6548 35.0658 22.9921 35.6443 23.7188C35.245 22.8583 34.6918 22.0865 34.0232 21.4062C33.2045 20.573 32.2905 19.8466 31.3768 19.1204C30.3663 18.3174 29.3563 17.5147 28.4758 16.5681L28.388 16.4728L28.3821 16.4709L28.301 16.5542C28.12 16.7402 27.9391 16.9262 27.7577 17.1119L26.8052 18.0857C24.8613 20.0755 22.9331 22.0846 21.2419 24.2988C20.2681 25.5739 19.3933 26.9104 18.6394 28.3277C18.2824 28.9989 17.9588 29.6869 17.6662 30.3888L17.5511 30.6682C17.4141 31.0026 17.266 31.3769 17.1838 31.7545C17.3458 31.9156 17.479 32.1268 17.608 32.3313C17.6738 32.4356 17.7384 32.5381 17.8053 32.6314C18.0297 32.9446 18.2886 33.2428 18.5549 33.5209C18.6278 33.5971 18.7027 33.6724 18.7792 33.7464ZM34.9779 34.6996C34.8378 34.2381 34.643 33.7899 34.3651 33.3952C34.1152 33.0383 33.7828 32.7343 33.3749 32.5735C32.9324 32.3989 32.4333 32.3516 31.9592 32.3068C31.9216 32.3032 31.8841 32.2997 31.8468 32.2961C30.8795 32.2019 29.8836 32.1942 28.9346 32.4316C27.6423 32.7553 26.5199 33.6409 26.0056 34.8462C25.9668 35.1093 25.97 35.3754 26.0257 35.6393C27.1225 36.4102 28.4694 36.8154 29.8174 36.6583C29.907 36.547 29.9987 36.419 30.0944 36.2855C30.4468 35.7935 30.8529 35.2265 31.4083 35.1458C31.9311 35.07 32.3011 35.4145 32.6727 35.7607C32.8636 35.9385 33.055 36.1167 33.2677 36.2385C33.3026 36.2584 33.3408 36.278 33.3802 36.2968C33.4875 36.2879 33.5949 36.2747 33.7011 36.2557C34.1842 35.796 34.6142 35.2745 34.9779 34.6996ZM25.5102 8.25969C22.8625 8.11984 20.4486 9.48847 18.5119 11.1922C14.9856 14.2941 12.8136 18.8359 12.3766 23.4999C12.1444 25.9779 12.3182 28.6489 13.6071 30.8384C14.1072 31.6878 14.7513 32.4279 15.5116 33.052C16.2281 33.6403 17.0447 33.9792 17.9178 34.2099C17.878 34.155 17.8388 34.0997 17.8006 34.0436C17.5975 33.7456 17.4362 33.4287 17.3011 33.0968C17.2892 33.1088 17.2667 33.1112 17.2535 33.0929C16.7024 32.3349 16.8749 31.4305 17.1376 30.597C17.413 29.7227 17.762 28.872 18.1604 28.0469C19.6125 25.0397 21.7722 22.4199 24.0141 19.9753C25.0411 18.8554 26.0987 17.7646 27.1562 16.6739C27.2777 16.5486 27.3992 16.4233 27.5206 16.298C28.1092 15.6905 28.6962 15.0813 29.2758 14.4651C29.5642 14.1584 29.8509 13.85 30.135 13.5392C30.1901 13.4789 30.244 13.418 30.2979 13.3572C30.5187 13.1079 30.7373 12.8612 31.0184 12.6761C31.2973 12.4927 31.5756 12.8433 31.4453 13.1041C31.2799 13.4349 31.0164 13.7092 30.758 13.9782C30.7031 14.0353 30.6485 14.0921 30.5951 14.1492L30.5637 14.183C30.2664 14.5048 29.9663 14.8239 29.6644 15.1414C29.3171 15.5065 28.9672 15.8691 28.6162 16.2308C28.7266 16.2179 28.8374 16.2071 28.9484 16.1963C29.1382 16.1778 29.3282 16.1593 29.5161 16.1307C29.9202 16.0692 30.3189 15.9786 30.7155 15.88C31.1336 15.7763 31.5462 15.6438 31.9444 15.4791C32.0531 15.4342 32.1601 15.3814 32.2672 15.3285C32.529 15.1993 32.7918 15.0696 33.084 15.0524C33.4324 15.0318 33.5413 15.4643 33.3481 15.6919C33.101 15.9831 32.6708 16.1104 32.2991 16.2203C32.2706 16.2288 32.2424 16.2371 32.2146 16.2454L32.1597 16.262C31.7294 16.3937 31.289 16.4925 30.8439 16.5585C30.2583 16.6454 29.5815 16.6852 28.955 16.5962C30.1146 17.2778 31.1885 18.1106 32.2535 18.9365C32.3375 19.0017 32.4216 19.0668 32.5056 19.1319L32.7082 19.2885C33.8298 20.1536 34.9247 21.0862 35.7244 22.2699C36.4709 23.3749 36.9218 24.6614 37.1748 25.9649C37.2996 26.608 37.3819 27.2579 37.4372 27.9105C37.643 28.4891 37.61 29.1771 37.5581 29.8134L37.5397 30.0329L37.541 30.0975C37.5424 30.1732 37.5494 30.2665 37.5571 30.3702C37.5901 30.8114 37.6369 31.4389 37.3326 31.6822C37.3299 31.6958 37.3272 31.7093 37.3246 31.7229C37.321 31.7414 37.3173 31.7599 37.3135 31.7785C37.3602 31.7496 37.4065 31.7198 37.4522 31.6891C37.4678 31.6787 37.4829 31.6673 37.4981 31.656L37.5077 31.6488L37.5598 31.6061L37.5605 31.6055C37.5622 31.6041 37.5636 31.6028 37.5648 31.6016C37.6814 31.4992 37.7927 31.392 37.8964 31.2762C38.0881 31.062 38.2701 30.7902 38.4427 30.4767C38.8217 29.7879 39.064 29.0392 39.2514 28.265C39.5938 26.8497 39.7351 25.3295 39.5788 23.878C39.5569 23.6754 39.5123 23.4214 39.4428 23.1607C39.278 22.5419 39.0884 21.9295 38.8762 21.3255C38.4515 20.117 37.9312 18.9447 37.3242 17.8172C36.0917 15.5272 34.5058 13.4101 32.6056 11.6335C30.6813 9.83426 28.1858 8.401 25.5102 8.25969Z" fill="#424257"/>
</g>
<defs>
<filter id="filter0_ddd_604_1946" x="0.076923" y="0" width="51.8462" height="53" filterUnits="userSpaceOnUse" color-interpolation-filters="sRGB">
<feFlood flood-opacity="0" result="BackgroundImageFix"/>
<feColorMatrix in="SourceAlpha" type="matrix" values="0 0 0 0 0 0 0 0 0 0 0 0 0 0 0 0 0 0 127 0" result="hardAlpha"/>
<feMorphology radius="1.15385" operator="erode" in="SourceAlpha" result="effect1_dropShadow_604_1946"/>
<feOffset dy="3.07692"/>
<feGaussianBlur stdDeviation="1.53846"/>
<feComposite in2="hardAlpha" operator="out"/>
<feColorMatrix type="matrix" values="0 0 0 0 0.184314 0 0 0 0 0.184314 0 0 0 0 0.415686 0 0 0 0.024 0"/>
<feBlend mode="normal" in2="BackgroundImageFix" result="effect1_dropShadow_604_1946"/>
<feColorMatrix in="SourceAlpha" type="matrix" values="0 0 0 0 0 0 0 0 0 0 0 0 0 0 0 0 0 0 127 0" result="hardAlpha"/>
<feMorphology radius="0.769231" operator="erode" in="SourceAlpha" result="effect2_dropShadow_604_1946"/>
<feOffset dy="0.704163"/>
<feGaussianBlur stdDeviation="0.352082"/>
<feComposite in2="hardAlpha" operator="out"/>
<feColorMatrix type="matrix" values="0 0 0 0 0.184314 0 0 0 0 0.184314 0 0 0 0 0.415686 0 0 0 0.063 0"/>
<feBlend mode="normal" in2="effect1_dropShadow_604_1946" result="effect2_dropShadow_604_1946"/>
<feColorMatrix in="SourceAlpha" type="matrix" values="0 0 0 0 0 0 0 0 0 0 0 0 0 0 0 0 0 0 127 0" result="hardAlpha"/>
<feMorphology radius="0.384615" operator="erode" in="SourceAlpha" result="effect3_dropShadow_604_1946"/>
<feOffset dy="0.185288"/>
<feGaussianBlur stdDeviation="0.0926442"/>
<feComposite in2="hardAlpha" operator="out"/>
<feColorMatrix type="matrix" values="0 0 0 0 0.184314 0 0 0 0 0.184314 0 0 0 0 0.415686 0 0 0 0.07 0"/>
<feBlend mode="normal" in2="effect2_dropShadow_604_1946" result="effect3_dropShadow_604_1946"/>
<feBlend mode="normal" in="SourceGraphic" in2="effect3_dropShadow_604_1946" result="shape"/>
</filter>
</defs>
</svg>

<svg width="52" height="53" fill="none" xmlns="http://www.w3.org/2000/svg"><g filter="url(#a)"><rect x="2" width="48" height="48" rx="24" fill="#fff" shape-rendering="crispEdges"/><path d="M26.084 25.63c.053-.658 1.055-.807 1.155-.156.089.583-.016 1.12-.279 1.644-.25.502-.882.268-.93-.189-.046-.451-.013-.72.021-.994.012-.098.025-.197.033-.305zM33.71 25.339c.14-.183.342-.308.583-.238.755.22.533 1.293.268 1.815-.144.283-.61.355-.82.106-.343-.407-.508-1.22-.072-1.62a.556.556 0 0 1 .041-.063zM26.95 22.751l.119-.02c.368-.065.827-.126 1.088.17.138.158.186.45 0 .601-.244.197-.506.19-.787.184-.096-.003-.194-.005-.294 0a4.293 4.293 0 0 0-.945.162c-.683.195-1.24.551-1.823.943-.076.051-.154-.047-.118-.118.337-.66.99-1.202 1.643-1.532.349-.177.73-.323 1.116-.39zM30.125 34.447a2.588 2.588 0 0 1-1.086-.836.502.502 0 0 1-.102-.39.564.564 0 0 1 .612-.459c.119.019.237.084.331.22l.02.027c.166.224.381.408.627.526.237.115.502.168.776.137.523-.06.883-.342 1.265-.725a9.85 9.85 0 0 0 .143-.15.224.224 0 0 1 .118-.09.259.259 0 0 1 .291.1c.03.042.047.095.041.157-.035.397-.242.752-.538 1.03-.328.31-.762.525-1.171.6-.451.082-.91.023-1.327-.147zM21.776 15.576c.095-.058.194.056.146.147-.173.335-.436.631-.692.92-.082.093-.165.185-.243.278-.331.393-.66.789-.989 1.185a61.735 61.735 0 0 0-1.948 2.468l-.165.222c-.551.742-1.096 1.495-1.577 2.283-.252.412-.474.838-.676 1.277-.082.177-.144.37-.207.564-.086.262-.171.525-.304.751-.015.025-.06.023-.065-.008-.071-.398.089-.871.219-1.255l.024-.073c.158-.47.383-.919.624-1.352.502-.903 1.104-1.75 1.708-2.586a47.43 47.43 0 0 1 1.92-2.488c.314-.38.635-.75.966-1.115l.124-.136.181-.2c.29-.323.591-.66.954-.881zM20.17 14.263c.157-.116.291.122.191.248-.451.57-.95 1.095-1.448 1.622-.163.17-.325.342-.485.514a31.437 31.437 0 0 0-1.797 2.106c-1.157 1.485-2.082 3.116-2.866 4.824-.015.032-.062.008-.055-.023.416-1.848 1.386-3.526 2.492-5.043l.042-.058c1.118-1.525 2.403-3.058 3.927-4.19z" fill="#424257"/><path fill-rule="evenodd" clip-rule="evenodd" d="M23.291 7.597c1.406-.329 2.88-.26 4.272.101 2.76.717 5.03 2.582 6.913 4.662a25.737 25.737 0 0 1 4.456 6.857l.056.128c.783 1.785 1.462 3.641 1.492 5.607.025 1.692-.146 3.455-.691 5.064-.486 1.434-1.38 2.878-2.916 3.222-.2.508-.443 1.001-.723 1.472.091.551.158 1.277.02 1.784a7.095 7.095 0 0 1-1.18 2.36c-.487.65-1.1 1.189-1.86 1.487-.991.39-2.174.28-3.208.18a16.954 16.954 0 0 1-3.791-.83 22.708 22.708 0 0 1-1.813-.705 82.324 82.324 0 0 0-.262-.113c-.505-.217-1.024-.44-1.49-.72-.4-.24-.748-.596-1.08-.934a30.8 30.8 0 0 0-.177-.18 23.35 23.35 0 0 1-1.276-1.373.622.622 0 0 1-.074.034c-.444.167-.903-.267-1.222-.568l-.072-.067a5.67 5.67 0 0 1-.551-.598 1.904 1.904 0 0 1-.496.016 5.52 5.52 0 0 1-.756-.14c-2.059-.542-3.583-2.256-4.405-4.164-1.104-2.563-1.079-5.516-.62-8.226.839-4.951 3.553-9.576 7.652-12.503 1.148-.82 2.42-1.529 3.802-1.853zm-4.512 26.15a3.439 3.439 0 0 1-.169-.662c-.191-1.248-.013-2.558.157-3.81l.04-.302c.005-.042.071-.065.085-.021l-.003-.07c-.005-.101.142-.115.169-.024.334 1.104.878 2.11 1.662 2.959.976 1.057 2.199 1.822 3.415 2.583l.381.24a.322.322 0 0 1 .157-.084c.194-.871.834-1.68 1.467-2.232 1.137-.989 2.694-1.632 4.257-1.754a4.738 4.738 0 0 1-.429-.285c-.37-.299.079-.958.478-.701l.064.049c.449.347 1.27.982 1.849.375.516-.723-.215-1.403-.695-1.695-.125-.09-.026-.39.243-.343 1.575.27 1.606 2.12.592 2.774a4.96 4.96 0 0 1 3.225 2.59c.077-.167.15-.337.22-.507a.575.575 0 0 1-.024-.156c0-.12.057-.19.12-.265a.64.64 0 0 0 .136-.224 8.62 8.62 0 0 0 .186-.674c.118-.515.185-1.037.225-1.563.014-.195.019-.394.023-.596.005-.241.01-.485.034-.724a23.01 23.01 0 0 0-.07-1.053c-.101-1.13-.308-2.255-.706-3.32l-.005-.011a.09.09 0 0 1-.012.019l-.005.006-.002.003-.002.003c-.012.016-.026.036-.079.052a2.853 2.853 0 0 1-.602-.228l-.178-.088a4.917 4.917 0 0 0-.64-.273 7.528 7.528 0 0 0-1.456-.321.598.598 0 0 1-.292-.111.44.44 0 0 1-.164-.25.447.447 0 0 1 .05-.373.472.472 0 0 1 .231-.198.54.54 0 0 1 .31-.026l.092.018c.863.18 1.952.518 2.53 1.245a8.268 8.268 0 0 0-1.62-2.313c-.82-.833-1.733-1.56-2.647-2.286-1.01-.803-2.02-1.605-2.901-2.552l-.088-.095-.006-.002-.081.083-.543.558-.953.974c-1.944 1.99-3.872 3.999-5.563 6.213a29.332 29.332 0 0 0-2.603 4.029c-.357.67-.68 1.359-.973 2.06l-.115.28c-.137.335-.285.709-.367 1.087.162.16.295.372.424.576.066.105.13.207.197.3a8.262 8.262 0 0 0 .974 1.115zm16.199.953a4.55 4.55 0 0 0-.613-1.305c-.25-.357-.582-.66-.99-.822-.443-.174-.942-.221-1.416-.266l-.112-.01c-.968-.095-1.963-.103-2.912.135-1.293.323-2.415 1.209-2.93 2.414-.038.263-.035.53.02.793 1.098.771 2.444 1.176 3.792 1.02.09-.112.182-.24.277-.373.353-.492.759-1.06 1.314-1.14.523-.076.893.268 1.265.615.19.177.382.356.595.477.035.02.073.04.112.059.107-.01.215-.022.321-.041.483-.46.913-.981 1.277-1.556zM25.51 8.26c-2.648-.14-5.061 1.228-6.998 2.932-3.526 3.102-5.698 7.644-6.135 12.308-.233 2.478-.059 5.149 1.23 7.338.5.85 1.144 1.59 1.905 2.214.716.588 1.533.927 2.406 1.158a5.043 5.043 0 0 1-.617-1.113.03.03 0 0 1-.047-.004c-.552-.758-.38-1.663-.116-2.496a19.02 19.02 0 0 1 1.022-2.55c1.453-3.007 3.612-5.627 5.854-8.072 1.027-1.12 2.085-2.21 3.142-3.301l.365-.376c.588-.607 1.175-1.217 1.755-1.833.288-.307.575-.615.859-.926l.163-.182c.22-.25.44-.496.72-.68.28-.184.558.166.427.427-.165.33-.429.605-.687.874l-.163.171-.031.034c-.298.322-.598.64-.9.958-.347.366-.697.728-1.048 1.09.11-.013.221-.024.332-.035.19-.018.38-.037.568-.065a13.23 13.23 0 0 0 1.2-.251c.418-.104.83-.236 1.228-.4.11-.046.216-.099.323-.152.262-.129.525-.258.817-.276.348-.02.457.412.264.64-.247.291-.677.418-1.049.528l-.084.025-.055.017c-.43.132-.871.23-1.316.296-.586.087-1.263.127-1.889.038 1.16.682 2.234 1.515 3.299 2.34l.252.196.202.156c1.122.866 2.217 1.798 3.016 2.982.747 1.105 1.198 2.391 1.45 3.695.126.643.208 1.293.263 1.945.206.58.173 1.267.121 1.903l-.018.22.001.064c.001.076.008.17.016.273.033.441.08 1.069-.224 1.312l-.008.04a6.07 6.07 0 0 1-.012.056c.047-.028.093-.058.14-.089l.045-.033.01-.007.052-.043a4.354 4.354 0 0 0 .882-1.129c.38-.69.622-1.438.81-2.212.342-1.415.483-2.936.327-4.387a4.927 4.927 0 0 0-.136-.717 24.629 24.629 0 0 0-2.119-5.343c-1.232-2.29-2.818-4.408-4.718-6.185-1.925-1.799-4.42-3.232-7.096-3.373z" fill="#424257"/></g><defs><filter id="a" x=".077" y="0" width="51.846" height="53" filterUnits="userSpaceOnUse" color-interpolation-filters="sRGB"><feFlood flood-opacity="0" result="BackgroundImageFix"/><feColorMatrix in="SourceAlpha" values="0 0 0 0 0 0 0 0 0 0 0 0 0 0 0 0 0 0 127 0" result="hardAlpha"/><feMorphology radius="1.154" in="SourceAlpha" result="effect1_dropShadow_604_1946"/><feOffset dy="3.077"/><feGaussianBlur stdDeviation="1.538"/><feComposite in2="hardAlpha" operator="out"/><feColorMatrix values="0 0 0 0 0.184314 0 0 0 0 0.184314 0 0 0 0 0.415686 0 0 0 0.024 0"/><feBlend in2="BackgroundImageFix" result="effect1_dropShadow_604_1946"/><feColorMatrix in="SourceAlpha" values="0 0 0 0 0 0 0 0 0 0 0 0 0 0 0 0 0 0 127 0" result="hardAlpha"/><feMorphology radius=".769" in="SourceAlpha" result="effect2_dropShadow_604_1946"/><feOffset dy=".704"/><feGaussianBlur stdDeviation=".352"/><feComposite in2="hardAlpha" operator="out"/><feColorMatrix values="0 0 0 0 0.184314 0 0 0 0 0.184314 0 0 0 0 0.415686 0 0 0 0.063 0"/><feBlend in2="effect1_dropShadow_604_1946" result="effect2_dropShadow_604_1946"/><feColorMatrix in="SourceAlpha" values="0 0 0 0 0 0 0 0 0 0 0 0 0 0 0 0 0 0 127 0" result="hardAlpha"/><feMorphology radius=".385" in="SourceAlpha" result="effect3_dropShadow_604_1946"/><feOffset dy=".185"/><feGaussianBlur stdDeviation=".093"/><feComposite in2="hardAlpha" operator="out"/><feColorMatrix values="0 0 0 0 0.184314 0 0 0 0 0.184314 0 0 0 0 0.415686 0 0 0 0.07 0"/><feBlend in2="effect2_dropShadow_604_1946" result="effect3_dropShadow_604_1946"/><feBlend in="SourceGraphic" in2="effect3_dropShadow_604_1946" result="shape"/></filter></defs></svg>
